Content/Assets/Decor/Bed/Users/mfs15/Downloads/cgmood-studio-sets-beta-3dsmax2015/tex/cgmood-high-contrast-lut.CUBE
#Created by: Adobe Photoshop Export Color Lookup Plugin
#Copyright: (C) Copyright 2017 Massimo Gnocchi
TITLE "max-2"
#LUT size
LUT_3D_SIZE 5
#data domain
#LUT data points
DOMAIN_MIN 0.000000 0.000000 0.000000
DOMAIN_MAX 0.903226 0.903226 0.903226
0.000000 0.000000 0.000000
0.148102 0.000000 0.000000
0.580170 0.000000 0.000000
0.872559 0.000000 0.000000
0.979034 0.000000 0.000000
0.000000 0.148102 0.000000
0.148102 0.148102 0.000000
0.580170 0.148102 0.000000
0.872559 0.148102 0.000000
0.979034 0.148102 0.000000
0.000000 0.580170 0.000000
0.148102 0.580170 0.000000
0.580170 0.580170 0.000000
0.872559 0.580170 0.000000
0.979034 0.580170 0.000000
0.000000 0.872559 0.000000
0.148102 0.872559 0.000000
0.580170 0.872559 0.000000
0.872559 0.872559 0.000000
0.979034 0.872559 0.000000
0.000000 0.979034 0.000000
0.148102 0.979034 0.000000
0.580170 0.979034 0.000000
0.872559 0.979034 0.000000
0.979034 0.979034 0.000000
0.000000 0.000000 0.148102
0.148102 0.000000 0.148102
0.580170 0.000000 0.148102
0.872559 0.000000 0.148102
0.979034 0.000000 0.148102
0.000000 0.148102 0.148102
0.148102 0.148102 0.148102
0.580170 0.148102 0.148102
0.872559 0.148102 0.148102
0.979034 0.148102 0.148102
0.000000 0.580170 0.148102
0.148102 0.580170 0.148102
0.580170 0.580170 0.148102
0.872559 0.580170 0.148102
0.979034 0.580170 0.148102
0.000000 0.872559 0.148102
0.148102 0.872559 0.148102
0.580170 0.872559 0.148102
0.872559 0.872559 0.148102
0.979034 0.872559 0.148102
0.000000 0.979034 0.148102
0.148102 0.979034 0.148102
0.580170 0.979034 0.148102
0.872559 0.979034 0.148102
0.979034 0.979034 0.148102
0.000000 0.000000 0.580170
0.148102 0.000000 0.580170
0.580170 0.000000 0.580170
0.872559 0.000000 0.580170
0.979034 0.000000 0.580170
0.000000 0.148102 0.580170
0.148102 0.148102 0.580170
0.580170 0.148102 0.580170
0.872559 0.148102 0.580170
0.979034 0.148102 0.580170
0.000000 0.580170 0.580170
0.148102 0.580170 0.580170
0.580170 0.580170 0.580170
0.872559 0.580170 0.580170
0.979034 0.580170 0.580170
0.000000 0.872559 0.580170
0.148102 0.872559 0.580170
0.580170 0.872559 0.580170
0.872559 0.872559 0.580170
0.979034 0.872559 0.580170
0.000000 0.979034 0.580170
0.148102 0.979034 0.580170
0.580170 0.979034 0.580170
0.872559 0.979034 0.580170
0.979034 0.979034 0.580170
0.000000 0.000000 0.872559
0.148102 0.000000 0.872559
0.580170 0.000000 0.872559
0.872559 0.000000 0.872559
0.979034 0.000000 0.872559
0.000000 0.148102 0.872559
0.148102 0.148102 0.872559
0.580170 0.148102 0.872559
0.872559 0.148102 0.872559
0.979034 0.148102 0.872559
0.000000 0.580170 0.872559
0.148102 0.580170 0.872559
0.580170 0.580170 0.872559
0.872559 0.580170 0.872559
0.979034 0.580170 0.872559
0.000000 0.872559 0.872559
0.148102 0.872559 0.872559
0.580170 0.872559 0.872559
0.872559 0.872559 0.872559
0.979034 0.872559 0.872559
0.000000 0.979034 0.872559
0.148102 0.979034 0.872559
0.580170 0.979034 0.872559
0.872559 0.979034 0.872559
0.979034 0.979034 0.872559
0.000000 0.000000 0.979034
0.148102 0.000000 0.979034
0.580170 0.000000 0.979034
0.872559 0.000000 0.979034
0.979034 0.000000 0.979034
0.000000 0.148102 0.979034
0.148102 0.148102 0.979034
0.580170 0.148102 0.979034
0.872559 0.148102 0.979034
0.979034 0.148102 0.979034
0.000000 0.580170 0.979034
0.148102 0.580170 0.979034
0.580170 0.580170 0.979034
0.872559 0.580170 0.979034
0.979034 0.580170 0.979034
0.000000 0.872559 0.979034
0.148102 0.872559 0.979034
0.580170 0.872559 0.979034
0.872559 0.872559 0.979034
0.979034 0.872559 0.979034
0.000000 0.979034 0.979034
0.148102 0.979034 0.979034
0.580170 0.979034 0.979034
0.872559 0.979034 0.979034
0.979034 0.979034 0.979034
