Content/Assets/Decor/Bed/Users/mfs15/Downloads/cgmood-studio-sets-beta-3dsmax2015/tex/cgmood-high-contrast-lut.CUBE
#Created by: Adobe Photoshop Export Color Lookup Plugin
#Copyright: (C) Copyright 2017 Massimo Gnocchi
TITLE "max-2"
#LUT size
LUT_3D_SIZE 8
#data domain
#LUT data points
DOMAIN_MIN 0.000000 0.000000 0.000000
DOMAIN_MAX 0.903226 0.903226 0.903226
0.000000 0.000000 0.000000
0.052795 0.000000 0.000000
0.197479 0.000000 0.000000
0.450592 0.000000 0.000000
0.690308 0.000000 0.000000
0.845215 0.000000 0.000000
0.933380 0.000000 0.000000
0.979034 0.000000 0.000000
0.000000 0.052795 0.000000
0.052795 0.052795 0.000000
0.197479 0.052795 0.000000
0.450592 0.052795 0.000000
0.690308 0.052795 0.000000
0.845215 0.052795 0.000000
0.933380 0.052795 0.000000
0.979034 0.052795 0.000000
0.000000 0.197479 0.000000
0.052795 0.197479 0.000000
0.197479 0.197479 0.000000
0.450592 0.197479 0.000000
0.690308 0.197479 0.000000
0.845215 0.197479 0.000000
0.933380 0.197479 0.000000
0.979034 0.197479 0.000000
0.000000 0.450592 0.000000
0.052795 0.450592 0.000000
0.197479 0.450592 0.000000
0.450592 0.450592 0.000000
0.690308 0.450592 0.000000
0.845215 0.450592 0.000000
0.933380 0.450592 0.000000
0.979034 0.450592 0.000000
0.000000 0.690308 0.000000
0.052795 0.690308 0.000000
0.197479 0.690308 0.000000
0.450592 0.690308 0.000000
0.690308 0.690308 0.000000
0.845215 0.690308 0.000000
0.933380 0.690308 0.000000
0.979034 0.690308 0.000000
0.000000 0.845215 0.000000
0.052795 0.845215 0.000000
0.197479 0.845215 0.000000
0.450592 0.845215 0.000000
0.690308 0.845215 0.000000
0.845215 0.845215 0.000000
0.933380 0.845215 0.000000
0.979034 0.845215 0.000000
0.000000 0.933380 0.000000
0.052795 0.933380 0.000000
0.197479 0.933380 0.000000
0.450592 0.933380 0.000000
0.690308 0.933380 0.000000
0.845215 0.933380 0.000000
0.933380 0.933380 0.000000
0.979034 0.933380 0.000000
0.000000 0.979034 0.000000
0.052795 0.979034 0.000000
0.197479 0.979034 0.000000
0.450592 0.979034 0.000000
0.690308 0.979034 0.000000
0.845215 0.979034 0.000000
0.933380 0.979034 0.000000
0.979034 0.979034 0.000000
0.000000 0.000000 0.052795
0.052795 0.000000 0.052795
0.197479 0.000000 0.052795
0.450592 0.000000 0.052795
0.690308 0.000000 0.052795
0.845215 0.000000 0.052795
0.933380 0.000000 0.052795
0.979034 0.000000 0.052795
0.000000 0.052795 0.052795
0.052795 0.052795 0.052795
0.197479 0.052795 0.052795
0.450592 0.052795 0.052795
0.690308 0.052795 0.052795
0.845215 0.052795 0.052795
0.933380 0.052795 0.052795
0.979034 0.052795 0.052795
0.000000 0.197479 0.052795
0.052795 0.197479 0.052795
0.197479 0.197479 0.052795
0.450592 0.197479 0.052795
0.690308 0.197479 0.052795
0.845215 0.197479 0.052795
0.933380 0.197479 0.052795
0.979034 0.197479 0.052795
0.000000 0.450592 0.052795
0.052795 0.450592 0.052795
0.197479 0.450592 0.052795
0.450592 0.450592 0.052795
0.690308 0.450592 0.052795
0.845215 0.450592 0.052795
0.933380 0.450592 0.052795
0.979034 0.450592 0.052795
0.000000 0.690308 0.052795
0.052795 0.690308 0.052795
0.197479 0.690308 0.052795
0.450592 0.690308 0.052795
0.690308 0.690308 0.052795
0.845215 0.690308 0.052795
0.933380 0.690308 0.052795
0.979034 0.690308 0.052795
0.000000 0.845215 0.052795
0.052795 0.845215 0.052795
0.197479 0.845215 0.052795
0.450592 0.845215 0.052795
0.690308 0.845215 0.052795
0.845215 0.845215 0.052795
0.933380 0.845215 0.052795
0.979034 0.845215 0.052795
0.000000 0.933380 0.052795
0.052795 0.933380 0.052795
0.197479 0.933380 0.052795
0.450592 0.933380 0.052795
0.690308 0.933380 0.052795
0.845215 0.933380 0.052795
0.933380 0.933380 0.052795
0.979034 0.933380 0.052795
0.000000 0.979034 0.052795
0.052795 0.979034 0.052795
0.197479 0.979034 0.052795
0.450592 0.979034 0.052795
0.690308 0.979034 0.052795
0.845215 0.979034 0.052795
0.933380 0.979034 0.052795
0.979034 0.979034 0.052795
0.000000 0.000000 0.197479
0.052795 0.000000 0.197479
0.197479 0.000000 0.197479
0.450592 0.000000 0.197479
0.690308 0.000000 0.197479
0.845215 0.000000 0.197479
0.933380 0.000000 0.197479
0.979034 0.000000 0.197479
0.000000 0.052795 0.197479
0.052795 0.052795 0.197479
0.197479 0.052795 0.197479
0.450592 0.052795 0.197479
0.690308 0.052795 0.197479
0.845215 0.052795 0.197479
0.933380 0.052795 0.197479
0.979034 0.052795 0.197479
0.000000 0.197479 0.197479
0.052795 0.197479 0.197479
0.197479 0.197479 0.197479
0.450592 0.197479 0.197479
0.690308 0.197479 0.197479
0.845215 0.197479 0.197479
0.933380 0.197479 0.197479
0.979034 0.197479 0.197479
0.000000 0.450592 0.197479
0.052795 0.450592 0.197479
0.197479 0.450592 0.197479
0.450592 0.450592 0.197479
0.690308 0.450592 0.197479
0.845215 0.450592 0.197479
0.933380 0.450592 0.197479
0.979034 0.450592 0.197479
0.000000 0.690308 0.197479
0.052795 0.690308 0.197479
0.197479 0.690308 0.197479
0.450592 0.690308 0.197479
0.690308 0.690308 0.197479
0.845215 0.690308 0.197479
0.933380 0.690308 0.197479
0.979034 0.690308 0.197479
0.000000 0.845215 0.197479
0.052795 0.845215 0.197479
0.197479 0.845215 0.197479
0.450592 0.845215 0.197479
0.690308 0.845215 0.197479
0.845215 0.845215 0.197479
0.933380 0.845215 0.197479
0.979034 0.845215 0.197479
0.000000 0.933380 0.197479
0.052795 0.933380 0.197479
0.197479 0.933380 0.197479
0.450592 0.933380 0.197479
0.690308 0.933380 0.197479
0.845215 0.933380 0.197479
0.933380 0.933380 0.197479
0.979034 0.933380 0.197479
0.000000 0.979034 0.197479
0.052795 0.979034 0.197479
0.197479 0.979034 0.197479
0.450592 0.979034 0.197479
0.690308 0.979034 0.197479
0.845215 0.979034 0.197479
0.933380 0.979034 0.197479
0.979034 0.979034 0.197479
0.000000 0.000000 0.450592
0.052795 0.000000 0.450592
0.197479 0.000000 0.450592
0.450592 0.000000 0.450592
0.690308 0.000000 0.450592
0.845215 0.000000 0.450592
0.933380 0.000000 0.450592
0.979034 0.000000 0.450592
0.000000 0.052795 0.450592
0.052795 0.052795 0.450592
0.197479 0.052795 0.450592
0.450592 0.052795 0.450592
0.690308 0.052795 0.450592
0.845215 0.052795 0.450592
0.933380 0.052795 0.450592
0.979034 0.052795 0.450592
0.000000 0.197479 0.450592
0.052795 0.197479 0.450592
0.197479 0.197479 0.450592
0.450592 0.197479 0.450592
0.690308 0.197479 0.450592
0.845215 0.197479 0.450592
0.933380 0.197479 0.450592
0.979034 0.197479 0.450592
0.000000 0.450592 0.450592
0.052795 0.450592 0.450592
0.197479 0.450592 0.450592
0.450592 0.450592 0.450592
0.690308 0.450592 0.450592
0.845215 0.450592 0.450592
0.933380 0.450592 0.450592
0.979034 0.450592 0.450592
0.000000 0.690308 0.450592
0.052795 0.690308 0.450592
0.197479 0.690308 0.450592
0.450592 0.690308 0.450592
0.690308 0.690308 0.450592
0.845215 0.690308 0.450592
0.933380 0.690308 0.450592
0.979034 0.690308 0.450592
0.000000 0.845215 0.450592
0.052795 0.845215 0.450592
0.197479 0.845215 0.450592
0.450592 0.845215 0.450592
0.690308 0.845215 0.450592
0.845215 0.845215 0.450592
0.933380 0.845215 0.450592
0.979034 0.845215 0.450592
0.000000 0.933380 0.450592
0.052795 0.933380 0.450592
0.197479 0.933380 0.450592
0.450592 0.933380 0.450592
0.690308 0.933380 0.450592
0.845215 0.933380 0.450592
0.933380 0.933380 0.450592
0.979034 0.933380 0.450592
0.000000 0.979034 0.450592
0.052795 0.979034 0.450592
0.197479 0.979034 0.450592
0.450592 0.979034 0.450592
0.690308 0.979034 0.450592
0.845215 0.979034 0.450592
0.933380 0.979034 0.450592
0.979034 0.979034 0.450592
0.000000 0.000000 0.690308
0.052795 0.000000 0.690308
0.197479 0.000000 0.690308
0.450592 0.000000 0.690308
0.690308 0.000000 0.690308
0.845215 0.000000 0.690308
0.933380 0.000000 0.690308
0.979034 0.000000 0.690308
0.000000 0.052795 0.690308
0.052795 0.052795 0.690308
0.197479 0.052795 0.690308
0.450592 0.052795 0.690308
0.690308 0.052795 0.690308
0.845215 0.052795 0.690308
0.933380 0.052795 0.690308
0.979034 0.052795 0.690308
0.000000 0.197479 0.690308
0.052795 0.197479 0.690308
0.197479 0.197479 0.690308
0.450592 0.197479 0.690308
0.690308 0.197479 0.690308
0.845215 0.197479 0.690308
0.933380 0.197479 0.690308
0.979034 0.197479 0.690308
0.000000 0.450592 0.690308
0.052795 0.450592 0.690308
0.197479 0.450592 0.690308
0.450592 0.450592 0.690308
0.690308 0.450592 0.690308
0.845215 0.450592 0.690308
0.933380 0.450592 0.690308
0.979034 0.450592 0.690308
0.000000 0.690308 0.690308
0.052795 0.690308 0.690308
0.197479 0.690308 0.690308
0.450592 0.690308 0.690308
0.690308 0.690308 0.690308
0.845215 0.690308 0.690308
0.933380 0.690308 0.690308
0.979034 0.690308 0.690308
0.000000 0.845215 0.690308
0.052795 0.845215 0.690308
0.197479 0.845215 0.690308
0.450592 0.845215 0.690308
0.690308 0.845215 0.690308
0.845215 0.845215 0.690308
0.933380 0.845215 0.690308
0.979034 0.845215 0.690308
0.000000 0.933380 0.690308
0.052795 0.933380 0.690308
0.197479 0.933380 0.690308
0.450592 0.933380 0.690308
0.690308 0.933380 0.690308
0.845215 0.933380 0.690308
0.933380 0.933380 0.690308
0.979034 0.933380 0.690308
0.000000 0.979034 0.690308
0.052795 0.979034 0.690308
0.197479 0.979034 0.690308
0.450592 0.979034 0.690308
0.690308 0.979034 0.690308
0.845215 0.979034 0.690308
0.933380 0.979034 0.690308
0.979034 0.979034 0.690308
0.000000 0.000000 0.845215
0.052795 0.000000 0.845215
0.197479 0.000000 0.845215
0.450592 0.000000 0.845215
0.690308 0.000000 0.845215
0.845215 0.000000 0.845215
0.933380 0.000000 0.845215
0.979034 0.000000 0.845215
0.000000 0.052795 0.845215
0.052795 0.052795 0.845215
0.197479 0.052795 0.845215
0.450592 0.052795 0.845215
0.690308 0.052795 0.845215
0.845215 0.052795 0.845215
0.933380 0.052795 0.845215
0.979034 0.052795 0.845215
0.000000 0.197479 0.845215
0.052795 0.197479 0.845215
0.197479 0.197479 0.845215
0.450592 0.197479 0.845215
0.690308 0.197479 0.845215
0.845215 0.197479 0.845215
0.933380 0.197479 0.845215
0.979034 0.197479 0.845215
0.000000 0.450592 0.845215
0.052795 0.450592 0.845215
0.197479 0.450592 0.845215
0.450592 0.450592 0.845215
0.690308 0.450592 0.845215
0.845215 0.450592 0.845215
0.933380 0.450592 0.845215
0.979034 0.450592 0.845215
0.000000 0.690308 0.845215
0.052795 0.690308 0.845215
0.197479 0.690308 0.845215
0.450592 0.690308 0.845215
0.690308 0.690308 0.845215
0.845215 0.690308 0.845215
0.933380 0.690308 0.845215
0.979034 0.690308 0.845215
0.000000 0.845215 0.845215
0.052795 0.845215 0.845215
0.197479 0.845215 0.845215
0.450592 0.845215 0.845215
0.690308 0.845215 0.845215
0.845215 0.845215 0.845215
0.933380 0.845215 0.845215
0.979034 0.845215 0.845215
0.000000 0.933380 0.845215
0.052795 0.933380 0.845215
0.197479 0.933380 0.845215
0.450592 0.933380 0.845215
0.690308 0.933380 0.845215
0.845215 0.933380 0.845215
0.933380 0.933380 0.845215
0.979034 0.933380 0.845215
0.000000 0.979034 0.845215
0.052795 0.979034 0.845215
0.197479 0.979034 0.845215
0.450592 0.979034 0.845215
0.690308 0.979034 0.845215
0.845215 0.979034 0.845215
0.933380 0.979034 0.845215
0.979034 0.979034 0.845215
0.000000 0.000000 0.933380
0.052795 0.000000 0.933380
0.197479 0.000000 0.933380
0.450592 0.000000 0.933380
0.690308 0.000000 0.933380
0.845215 0.000000 0.933380
0.933380 0.000000 0.933380
0.979034 0.000000 0.933380
0.000000 0.052795 0.933380
0.052795 0.052795 0.933380
0.197479 0.052795 0.933380
0.450592 0.052795 0.933380
0.690308 0.052795 0.933380
0.845215 0.052795 0.933380
0.933380 0.052795 0.933380
0.979034 0.052795 0.933380
0.000000 0.197479 0.933380
0.052795 0.197479 0.933380
0.197479 0.197479 0.933380
0.450592 0.197479 0.933380
0.690308 0.197479 0.933380
0.845215 0.197479 0.933380
0.933380 0.197479 0.933380
0.979034 0.197479 0.933380
0.000000 0.450592 0.933380
0.052795 0.450592 0.933380
0.197479 0.450592 0.933380
0.450592 0.450592 0.933380
0.690308 0.450592 0.933380
0.845215 0.450592 0.933380
0.933380 0.450592 0.933380
0.979034 0.450592 0.933380
0.000000 0.690308 0.933380
0.052795 0.690308 0.933380
0.197479 0.690308 0.933380
0.450592 0.690308 0.933380
0.690308 0.690308 0.933380
0.845215 0.690308 0.933380
0.933380 0.690308 0.933380
0.979034 0.690308 0.933380
0.000000 0.845215 0.933380
0.052795 0.845215 0.933380
0.197479 0.845215 0.933380
0.450592 0.845215 0.933380
0.690308 0.845215 0.933380
0.845215 0.845215 0.933380
0.933380 0.845215 0.933380
0.979034 0.845215 0.933380
0.000000 0.933380 0.933380
0.052795 0.933380 0.933380
0.197479 0.933380 0.933380
0.450592 0.933380 0.933380
0.690308 0.933380 0.933380
0.845215 0.933380 0.933380
0.933380 0.933380 0.933380
0.979034 0.933380 0.933380
0.000000 0.979034 0.933380
0.052795 0.979034 0.933380
0.197479 0.979034 0.933380
0.450592 0.979034 0.933380
0.690308 0.979034 0.933380
0.845215 0.979034 0.933380
0.933380 0.979034 0.933380
0.979034 0.979034 0.933380
0.000000 0.000000 0.979034
0.052795 0.000000 0.979034
0.197479 0.000000 0.979034
0.450592 0.000000 0.979034
0.690308 0.000000 0.979034
0.845215 0.000000 0.979034
0.933380 0.000000 0.979034
0.979034 0.000000 0.979034
0.000000 0.052795 0.979034
0.052795 0.052795 0.979034
0.197479 0.052795 0.979034
0.450592 0.052795 0.979034
0.690308 0.052795 0.979034
0.845215 0.052795 0.979034
0.933380 0.052795 0.979034
0.979034 0.052795 0.979034
0.000000 0.197479 0.979034
0.052795 0.197479 0.979034
0.197479 0.197479 0.979034
0.450592 0.197479 0.979034
0.690308 0.197479 0.979034
0.845215 0.197479 0.979034
0.933380 0.197479 0.979034
0.979034 0.197479 0.979034
0.000000 0.450592 0.979034
0.052795 0.450592 0.979034
0.197479 0.450592 0.979034
0.450592 0.450592 0.979034
0.690308 0.450592 0.979034
0.845215 0.450592 0.979034
0.933380 0.450592 0.979034
0.979034 0.450592 0.979034
0.000000 0.690308 0.979034
0.052795 0.690308 0.979034
0.197479 0.690308 0.979034
0.450592 0.690308 0.979034
0.690308 0.690308 0.979034
0.845215 0.690308 0.979034
0.933380 0.690308 0.979034
0.979034 0.690308 0.979034
0.000000 0.845215 0.979034
0.052795 0.845215 0.979034
0.197479 0.845215 0.979034
0.450592 0.845215 0.979034
0.690308 0.845215 0.979034
0.845215 0.845215 0.979034
0.933380 0.845215 0.979034
0.979034 0.845215 0.979034
0.000000 0.933380 0.979034
0.052795 0.933380 0.979034
0.197479 0.933380 0.979034
0.450592 0.933380 0.979034
0.690308 0.933380 0.979034
0.845215 0.933380 0.979034
0.933380 0.933380 0.979034
0.979034 0.933380 0.979034
0.000000 0.979034 0.979034
0.052795 0.979034 0.979034
0.197479 0.979034 0.979034
0.450592 0.979034 0.979034
0.690308 0.979034 0.979034
0.845215 0.979034 0.979034
0.933380 0.979034 0.979034
0.979034 0.979034 0.979034
