Content/Assets/Decor/Bed/Users/mfs15/Downloads/cgmood-studio-sets-beta-3dsmax2015/tex/cgmood-high-contrast-lut.CUBE
#Created by: Adobe Photoshop Export Color Lookup Plugin
#Copyright: (C) Copyright 2017 Massimo Gnocchi
TITLE "max-2"
#LUT size
LUT_3D_SIZE 32
#data domain
DOMAIN_MIN 0.0 0.0 0.0
DOMAIN_MAX 1.0 1.0 1.0
#LUT data points
0.000000 0.000000 0.000000
0.009552 0.000000 0.000000
0.020599 0.000000 0.000000
0.034515 0.000000 0.000000
0.052795 0.000000 0.000000
0.076813 0.000000 0.000000
0.108124 0.000000 0.000000
0.148102 0.000000 0.000000
0.197479 0.000000 0.000000
0.254578 0.000000 0.000000
0.317261 0.000000 0.000000
0.383301 0.000000 0.000000
0.450592 0.000000 0.000000
0.516937 0.000000 0.000000
0.580170 0.000000 0.000000
0.638214 0.000000 0.000000
0.690308 0.000000 0.000000
0.736603 0.000000 0.000000
0.777618 0.000000 0.000000
0.813690 0.000000 0.000000
0.845215 0.000000 0.000000
0.872559 0.000000 0.000000
0.896118 0.000000 0.000000
0.916260 0.000000 0.000000
0.933380 0.000000 0.000000
0.947815 0.000000 0.000000
0.959991 0.000000 0.000000
0.970276 0.000000 0.000000
0.979034 0.000000 0.000000
0.986664 0.000000 0.000000
0.993530 0.000000 0.000000
1.000000 0.000000 0.000000
0.000000 0.009552 0.000000
0.009552 0.009552 0.000000
0.020599 0.009552 0.000000
0.034515 0.009552 0.000000
0.052795 0.009552 0.000000
0.076813 0.009552 0.000000
0.108124 0.009552 0.000000
0.148102 0.009552 0.000000
0.197479 0.009552 0.000000
0.254578 0.009552 0.000000
0.317261 0.009552 0.000000
0.383301 0.009552 0.000000
0.450592 0.009552 0.000000
0.516937 0.009552 0.000000
0.580170 0.009552 0.000000
0.638214 0.009552 0.000000
0.690308 0.009552 0.000000
0.736603 0.009552 0.000000
0.777618 0.009552 0.000000
0.813690 0.009552 0.000000
0.845215 0.009552 0.000000
0.872559 0.009552 0.000000
0.896118 0.009552 0.000000
0.916260 0.009552 0.000000
0.933380 0.009552 0.000000
0.947815 0.009552 0.000000
0.959991 0.009552 0.000000
0.970276 0.009552 0.000000
0.979034 0.009552 0.000000
0.986664 0.009552 0.000000
0.993530 0.009552 0.000000
1.000000 0.009552 0.000000
0.000000 0.020599 0.000000
0.009552 0.020599 0.000000
0.020599 0.020599 0.000000
0.034515 0.020599 0.000000
0.052795 0.020599 0.000000
0.076813 0.020599 0.000000
0.108124 0.020599 0.000000
0.148102 0.020599 0.000000
0.197479 0.020599 0.000000
0.254578 0.020599 0.000000
0.317261 0.020599 0.000000
0.383301 0.020599 0.000000
0.450592 0.020599 0.000000
0.516937 0.020599 0.000000
0.580170 0.020599 0.000000
0.638214 0.020599 0.000000
0.690308 0.020599 0.000000
0.736603 0.020599 0.000000
0.777618 0.020599 0.000000
0.813690 0.020599 0.000000
0.845215 0.020599 0.000000
0.872559 0.020599 0.000000
0.896118 0.020599 0.000000
0.916260 0.020599 0.000000
0.933380 0.020599 0.000000
0.947815 0.020599 0.000000
0.959991 0.020599 0.000000
0.970276 0.020599 0.000000
0.979034 0.020599 0.000000
0.986664 0.020599 0.000000
0.993530 0.020599 0.000000
1.000000 0.020599 0.000000
0.000000 0.034515 0.000000
0.009552 0.034515 0.000000
0.020599 0.034515 0.000000
0.034515 0.034515 0.000000
0.052795 0.034515 0.000000
0.076813 0.034515 0.000000
0.108124 0.034515 0.000000
0.148102 0.034515 0.000000
0.197479 0.034515 0.000000
0.254578 0.034515 0.000000
0.317261 0.034515 0.000000
0.383301 0.034515 0.000000
0.450592 0.034515 0.000000
0.516937 0.034515 0.000000
0.580170 0.034515 0.000000
0.638214 0.034515 0.000000
0.690308 0.034515 0.000000
0.736603 0.034515 0.000000
0.777618 0.034515 0.000000
0.813690 0.034515 0.000000
0.845215 0.034515 0.000000
0.872559 0.034515 0.000000
0.896118 0.034515 0.000000
0.916260 0.034515 0.000000
0.933380 0.034515 0.000000
0.947815 0.034515 0.000000
0.959991 0.034515 0.000000
0.970276 0.034515 0.000000
0.979034 0.034515 0.000000
0.986664 0.034515 0.000000
0.993530 0.034515 0.000000
1.000000 0.034515 0.000000
0.000000 0.052795 0.000000
0.009552 0.052795 0.000000
0.020599 0.052795 0.000000
0.034515 0.052795 0.000000
0.052795 0.052795 0.000000
0.076813 0.052795 0.000000
0.108124 0.052795 0.000000
0.148102 0.052795 0.000000
0.197479 0.052795 0.000000
0.254578 0.052795 0.000000
0.317261 0.052795 0.000000
0.383301 0.052795 0.000000
0.450592 0.052795 0.000000
0.516937 0.052795 0.000000
0.580170 0.052795 0.000000
0.638214 0.052795 0.000000
0.690308 0.052795 0.000000
0.736603 0.052795 0.000000
0.777618 0.052795 0.000000
0.813690 0.052795 0.000000
0.845215 0.052795 0.000000
0.872559 0.052795 0.000000
0.896118 0.052795 0.000000
0.916260 0.052795 0.000000
0.933380 0.052795 0.000000
0.947815 0.052795 0.000000
0.959991 0.052795 0.000000
0.970276 0.052795 0.000000
0.979034 0.052795 0.000000
0.986664 0.052795 0.000000
0.993530 0.052795 0.000000
1.000000 0.052795 0.000000
0.000000 0.076813 0.000000
0.009552 0.076813 0.000000
0.020599 0.076813 0.000000
0.034515 0.076813 0.000000
0.052795 0.076813 0.000000
0.076813 0.076813 0.000000
0.108124 0.076813 0.000000
0.148102 0.076813 0.000000
0.197479 0.076813 0.000000
0.254578 0.076813 0.000000
0.317261 0.076813 0.000000
0.383301 0.076813 0.000000
0.450592 0.076813 0.000000
0.516937 0.076813 0.000000
0.580170 0.076813 0.000000
0.638214 0.076813 0.000000
0.690308 0.076813 0.000000
0.736603 0.076813 0.000000
0.777618 0.076813 0.000000
0.813690 0.076813 0.000000
0.845215 0.076813 0.000000
0.872559 0.076813 0.000000
0.896118 0.076813 0.000000
0.916260 0.076813 0.000000
0.933380 0.076813 0.000000
0.947815 0.076813 0.000000
0.959991 0.076813 0.000000
0.970276 0.076813 0.000000
0.979034 0.076813 0.000000
0.986664 0.076813 0.000000
0.993530 0.076813 0.000000
1.000000 0.076813 0.000000
0.000000 0.108124 0.000000
0.009552 0.108124 0.000000
0.020599 0.108124 0.000000
0.034515 0.108124 0.000000
0.052795 0.108124 0.000000
0.076813 0.108124 0.000000
0.108124 0.108124 0.000000
0.148102 0.108124 0.000000
0.197479 0.108124 0.000000
0.254578 0.108124 0.000000
0.317261 0.108124 0.000000
0.383301 0.108124 0.000000
0.450592 0.108124 0.000000
0.516937 0.108124 0.000000
0.580170 0.108124 0.000000
0.638214 0.108124 0.000000
0.690308 0.108124 0.000000
0.736603 0.108124 0.000000
0.777618 0.108124 0.000000
0.813690 0.108124 0.000000
0.845215 0.108124 0.000000
0.872559 0.108124 0.000000
0.896118 0.108124 0.000000
0.916260 0.108124 0.000000
0.933380 0.108124 0.000000
0.947815 0.108124 0.000000
0.959991 0.108124 0.000000
0.970276 0.108124 0.000000
0.979034 0.108124 0.000000
0.986664 0.108124 0.000000
0.993530 0.108124 0.000000
1.000000 0.108124 0.000000
0.000000 0.148102 0.000000
0.009552 0.148102 0.000000
0.020599 0.148102 0.000000
0.034515 0.148102 0.000000
0.052795 0.148102 0.000000
0.076813 0.148102 0.000000
0.108124 0.148102 0.000000
0.148102 0.148102 0.000000
0.197479 0.148102 0.000000
0.254578 0.148102 0.000000
0.317261 0.148102 0.000000
0.383301 0.148102 0.000000
0.450592 0.148102 0.000000
0.516937 0.148102 0.000000
0.580170 0.148102 0.000000
0.638214 0.148102 0.000000
0.690308 0.148102 0.000000
0.736603 0.148102 0.000000
0.777618 0.148102 0.000000
0.813690 0.148102 0.000000
0.845215 0.148102 0.000000
0.872559 0.148102 0.000000
0.896118 0.148102 0.000000
0.916260 0.148102 0.000000
0.933380 0.148102 0.000000
0.947815 0.148102 0.000000
0.959991 0.148102 0.000000
0.970276 0.148102 0.000000
0.979034 0.148102 0.000000
0.986664 0.148102 0.000000
0.993530 0.148102 0.000000
1.000000 0.148102 0.000000
0.000000 0.197479 0.000000
0.009552 0.197479 0.000000
0.020599 0.197479 0.000000
0.034515 0.197479 0.000000
0.052795 0.197479 0.000000
0.076813 0.197479 0.000000
0.108124 0.197479 0.000000
0.148102 0.197479 0.000000
0.197479 0.197479 0.000000
0.254578 0.197479 0.000000
0.317261 0.197479 0.000000
0.383301 0.197479 0.000000
0.450592 0.197479 0.000000
0.516937 0.197479 0.000000
0.580170 0.197479 0.000000
0.638214 0.197479 0.000000
0.690308 0.197479 0.000000
0.736603 0.197479 0.000000
0.777618 0.197479 0.000000
0.813690 0.197479 0.000000
0.845215 0.197479 0.000000
0.872559 0.197479 0.000000
0.896118 0.197479 0.000000
0.916260 0.197479 0.000000
0.933380 0.197479 0.000000
0.947815 0.197479 0.000000
0.959991 0.197479 0.000000
0.970276 0.197479 0.000000
0.979034 0.197479 0.000000
0.986664 0.197479 0.000000
0.993530 0.197479 0.000000
1.000000 0.197479 0.000000
0.000000 0.254578 0.000000
0.009552 0.254578 0.000000
0.020599 0.254578 0.000000
0.034515 0.254578 0.000000
0.052795 0.254578 0.000000
0.076813 0.254578 0.000000
0.108124 0.254578 0.000000
0.148102 0.254578 0.000000
0.197479 0.254578 0.000000
0.254578 0.254578 0.000000
0.317261 0.254578 0.000000
0.383301 0.254578 0.000000
0.450592 0.254578 0.000000
0.516937 0.254578 0.000000
0.580170 0.254578 0.000000
0.638214 0.254578 0.000000
0.690308 0.254578 0.000000
0.736603 0.254578 0.000000
0.777618 0.254578 0.000000
0.813690 0.254578 0.000000
0.845215 0.254578 0.000000
0.872559 0.254578 0.000000
0.896118 0.254578 0.000000
0.916260 0.254578 0.000000
0.933380 0.254578 0.000000
0.947815 0.254578 0.000000
0.959991 0.254578 0.000000
0.970276 0.254578 0.000000
0.979034 0.254578 0.000000
0.986664 0.254578 0.000000
0.993530 0.254578 0.000000
1.000000 0.254578 0.000000
0.000000 0.317261 0.000000
0.009552 0.317261 0.000000
0.020599 0.317261 0.000000
0.034515 0.317261 0.000000
0.052795 0.317261 0.000000
0.076813 0.317261 0.000000
0.108124 0.317261 0.000000
0.148102 0.317261 0.000000
0.197479 0.317261 0.000000
0.254578 0.317261 0.000000
0.317261 0.317261 0.000000
0.383301 0.317261 0.000000
0.450592 0.317261 0.000000
0.516937 0.317261 0.000000
0.580170 0.317261 0.000000
0.638214 0.317261 0.000000
0.690308 0.317261 0.000000
0.736603 0.317261 0.000000
0.777618 0.317261 0.000000
0.813690 0.317261 0.000000
0.845215 0.317261 0.000000
0.872559 0.317261 0.000000
0.896118 0.317261 0.000000
0.916260 0.317261 0.000000
0.933380 0.317261 0.000000
0.947815 0.317261 0.000000
0.959991 0.317261 0.000000
0.970276 0.317261 0.000000
0.979034 0.317261 0.000000
0.986664 0.317261 0.000000
0.993530 0.317261 0.000000
1.000000 0.317261 0.000000
0.000000 0.383301 0.000000
0.009552 0.383301 0.000000
0.020599 0.383301 0.000000
0.034515 0.383301 0.000000
0.052795 0.383301 0.000000
0.076813 0.383301 0.000000
0.108124 0.383301 0.000000
0.148102 0.383301 0.000000
0.197479 0.383301 0.000000
0.254578 0.383301 0.000000
0.317261 0.383301 0.000000
0.383301 0.383301 0.000000
0.450592 0.383301 0.000000
0.516937 0.383301 0.000000
0.580170 0.383301 0.000000
0.638214 0.383301 0.000000
0.690308 0.383301 0.000000
0.736603 0.383301 0.000000
0.777618 0.383301 0.000000
0.813690 0.383301 0.000000
0.845215 0.383301 0.000000
0.872559 0.383301 0.000000
0.896118 0.383301 0.000000
0.916260 0.383301 0.000000
0.933380 0.383301 0.000000
0.947815 0.383301 0.000000
0.959991 0.383301 0.000000
0.970276 0.383301 0.000000
0.979034 0.383301 0.000000
0.986664 0.383301 0.000000
0.993530 0.383301 0.000000
1.000000 0.383301 0.000000
0.000000 0.450592 0.000000
0.009552 0.450592 0.000000
0.020599 0.450592 0.000000
0.034515 0.450592 0.000000
0.052795 0.450592 0.000000
0.076813 0.450592 0.000000
0.108124 0.450592 0.000000
0.148102 0.450592 0.000000
0.197479 0.450592 0.000000
0.254578 0.450592 0.000000
0.317261 0.450592 0.000000
0.383301 0.450592 0.000000
0.450592 0.450592 0.000000
0.516937 0.450592 0.000000
0.580170 0.450592 0.000000
0.638214 0.450592 0.000000
0.690308 0.450592 0.000000
0.736603 0.450592 0.000000
0.777618 0.450592 0.000000
0.813690 0.450592 0.000000
0.845215 0.450592 0.000000
0.872559 0.450592 0.000000
0.896118 0.450592 0.000000
0.916260 0.450592 0.000000
0.933380 0.450592 0.000000
0.947815 0.450592 0.000000
0.959991 0.450592 0.000000
0.970276 0.450592 0.000000
0.979034 0.450592 0.000000
0.986664 0.450592 0.000000
0.993530 0.450592 0.000000
1.000000 0.450592 0.000000
0.000000 0.516937 0.000000
0.009552 0.516937 0.000000
0.020599 0.516937 0.000000
0.034515 0.516937 0.000000
0.052795 0.516937 0.000000
0.076813 0.516937 0.000000
0.108124 0.516937 0.000000
0.148102 0.516937 0.000000
0.197479 0.516937 0.000000
0.254578 0.516937 0.000000
0.317261 0.516937 0.000000
0.383301 0.516937 0.000000
0.450592 0.516937 0.000000
0.516937 0.516937 0.000000
0.580170 0.516937 0.000000
0.638214 0.516937 0.000000
0.690308 0.516937 0.000000
0.736603 0.516937 0.000000
0.777618 0.516937 0.000000
0.813690 0.516937 0.000000
0.845215 0.516937 0.000000
0.872559 0.516937 0.000000
0.896118 0.516937 0.000000
0.916260 0.516937 0.000000
0.933380 0.516937 0.000000
0.947815 0.516937 0.000000
0.959991 0.516937 0.000000
0.970276 0.516937 0.000000
0.979034 0.516937 0.000000
0.986664 0.516937 0.000000
0.993530 0.516937 0.000000
1.000000 0.516937 0.000000
0.000000 0.580170 0.000000
0.009552 0.580170 0.000000
0.020599 0.580170 0.000000
0.034515 0.580170 0.000000
0.052795 0.580170 0.000000
0.076813 0.580170 0.000000
0.108124 0.580170 0.000000
0.148102 0.580170 0.000000
0.197479 0.580170 0.000000
0.254578 0.580170 0.000000
0.317261 0.580170 0.000000
0.383301 0.580170 0.000000
0.450592 0.580170 0.000000
0.516937 0.580170 0.000000
0.580170 0.580170 0.000000
0.638214 0.580170 0.000000
0.690308 0.580170 0.000000
0.736603 0.580170 0.000000
0.777618 0.580170 0.000000
0.813690 0.580170 0.000000
0.845215 0.580170 0.000000
0.872559 0.580170 0.000000
0.896118 0.580170 0.000000
0.916260 0.580170 0.000000
0.933380 0.580170 0.000000
0.947815 0.580170 0.000000
0.959991 0.580170 0.000000
0.970276 0.580170 0.000000
0.979034 0.580170 0.000000
0.986664 0.580170 0.000000
0.993530 0.580170 0.000000
1.000000 0.580170 0.000000
0.000000 0.638214 0.000000
0.009552 0.638214 0.000000
0.020599 0.638214 0.000000
0.034515 0.638214 0.000000
0.052795 0.638214 0.000000
0.076813 0.638214 0.000000
0.108124 0.638214 0.000000
0.148102 0.638214 0.000000
0.197479 0.638214 0.000000
0.254578 0.638214 0.000000
0.317261 0.638214 0.000000
0.383301 0.638214 0.000000
0.450592 0.638214 0.000000
0.516937 0.638214 0.000000
0.580170 0.638214 0.000000
0.638214 0.638214 0.000000
0.690308 0.638214 0.000000
0.736603 0.638214 0.000000
0.777618 0.638214 0.000000
0.813690 0.638214 0.000000
0.845215 0.638214 0.000000
0.872559 0.638214 0.000000
0.896118 0.638214 0.000000
0.916260 0.638214 0.000000
0.933380 0.638214 0.000000
0.947815 0.638214 0.000000
0.959991 0.638214 0.000000
0.970276 0.638214 0.000000
0.979034 0.638214 0.000000
0.986664 0.638214 0.000000
0.993530 0.638214 0.000000
1.000000 0.638214 0.000000
0.000000 0.690308 0.000000
0.009552 0.690308 0.000000
0.020599 0.690308 0.000000
0.034515 0.690308 0.000000
0.052795 0.690308 0.000000
0.076813 0.690308 0.000000
0.108124 0.690308 0.000000
0.148102 0.690308 0.000000
0.197479 0.690308 0.000000
0.254578 0.690308 0.000000
0.317261 0.690308 0.000000
0.383301 0.690308 0.000000
0.450592 0.690308 0.000000
0.516937 0.690308 0.000000
0.580170 0.690308 0.000000
0.638214 0.690308 0.000000
0.690308 0.690308 0.000000
0.736603 0.690308 0.000000
0.777618 0.690308 0.000000
0.813690 0.690308 0.000000
0.845215 0.690308 0.000000
0.872559 0.690308 0.000000
0.896118 0.690308 0.000000
0.916260 0.690308 0.000000
0.933380 0.690308 0.000000
0.947815 0.690308 0.000000
0.959991 0.690308 0.000000
0.970276 0.690308 0.000000
0.979034 0.690308 0.000000
0.986664 0.690308 0.000000
0.993530 0.690308 0.000000
1.000000 0.690308 0.000000
0.000000 0.736603 0.000000
0.009552 0.736603 0.000000
0.020599 0.736603 0.000000
0.034515 0.736603 0.000000
0.052795 0.736603 0.000000
0.076813 0.736603 0.000000
0.108124 0.736603 0.000000
0.148102 0.736603 0.000000
0.197479 0.736603 0.000000
0.254578 0.736603 0.000000
0.317261 0.736603 0.000000
0.383301 0.736603 0.000000
0.450592 0.736603 0.000000
0.516937 0.736603 0.000000
0.580170 0.736603 0.000000
0.638214 0.736603 0.000000
0.690308 0.736603 0.000000
0.736603 0.736603 0.000000
0.777618 0.736603 0.000000
0.813690 0.736603 0.000000
0.845215 0.736603 0.000000
0.872559 0.736603 0.000000
0.896118 0.736603 0.000000
0.916260 0.736603 0.000000
0.933380 0.736603 0.000000
0.947815 0.736603 0.000000
0.959991 0.736603 0.000000
0.970276 0.736603 0.000000
0.979034 0.736603 0.000000
0.986664 0.736603 0.000000
0.993530 0.736603 0.000000
1.000000 0.736603 0.000000
0.000000 0.777618 0.000000
0.009552 0.777618 0.000000
0.020599 0.777618 0.000000
0.034515 0.777618 0.000000
0.052795 0.777618 0.000000
0.076813 0.777618 0.000000
0.108124 0.777618 0.000000
0.148102 0.777618 0.000000
0.197479 0.777618 0.000000
0.254578 0.777618 0.000000
0.317261 0.777618 0.000000
0.383301 0.777618 0.000000
0.450592 0.777618 0.000000
0.516937 0.777618 0.000000
0.580170 0.777618 0.000000
0.638214 0.777618 0.000000
0.690308 0.777618 0.000000
0.736603 0.777618 0.000000
0.777618 0.777618 0.000000
0.813690 0.777618 0.000000
0.845215 0.777618 0.000000
0.872559 0.777618 0.000000
0.896118 0.777618 0.000000
0.916260 0.777618 0.000000
0.933380 0.777618 0.000000
0.947815 0.777618 0.000000
0.959991 0.777618 0.000000
0.970276 0.777618 0.000000
0.979034 0.777618 0.000000
0.986664 0.777618 0.000000
0.993530 0.777618 0.000000
1.000000 0.777618 0.000000
0.000000 0.813690 0.000000
0.009552 0.813690 0.000000
0.020599 0.813690 0.000000
0.034515 0.813690 0.000000
0.052795 0.813690 0.000000
0.076813 0.813690 0.000000
0.108124 0.813690 0.000000
0.148102 0.813690 0.000000
0.197479 0.813690 0.000000
0.254578 0.813690 0.000000
0.317261 0.813690 0.000000
0.383301 0.813690 0.000000
0.450592 0.813690 0.000000
0.516937 0.813690 0.000000
0.580170 0.813690 0.000000
0.638214 0.813690 0.000000
0.690308 0.813690 0.000000
0.736603 0.813690 0.000000
0.777618 0.813690 0.000000
0.813690 0.813690 0.000000
0.845215 0.813690 0.000000
0.872559 0.813690 0.000000
0.896118 0.813690 0.000000
0.916260 0.813690 0.000000
0.933380 0.813690 0.000000
0.947815 0.813690 0.000000
0.959991 0.813690 0.000000
0.970276 0.813690 0.000000
0.979034 0.813690 0.000000
0.986664 0.813690 0.000000
0.993530 0.813690 0.000000
1.000000 0.813690 0.000000
0.000000 0.845215 0.000000
0.009552 0.845215 0.000000
0.020599 0.845215 0.000000
0.034515 0.845215 0.000000
0.052795 0.845215 0.000000
0.076813 0.845215 0.000000
0.108124 0.845215 0.000000
0.148102 0.845215 0.000000
0.197479 0.845215 0.000000
0.254578 0.845215 0.000000
0.317261 0.845215 0.000000
0.383301 0.845215 0.000000
0.450592 0.845215 0.000000
0.516937 0.845215 0.000000
0.580170 0.845215 0.000000
0.638214 0.845215 0.000000
0.690308 0.845215 0.000000
0.736603 0.845215 0.000000
0.777618 0.845215 0.000000
0.813690 0.845215 0.000000
0.845215 0.845215 0.000000
0.872559 0.845215 0.000000
0.896118 0.845215 0.000000
0.916260 0.845215 0.000000
0.933380 0.845215 0.000000
0.947815 0.845215 0.000000
0.959991 0.845215 0.000000
0.970276 0.845215 0.000000
0.979034 0.845215 0.000000
0.986664 0.845215 0.000000
0.993530 0.845215 0.000000
1.000000 0.845215 0.000000
0.000000 0.872559 0.000000
0.009552 0.872559 0.000000
0.020599 0.872559 0.000000
0.034515 0.872559 0.000000
0.052795 0.872559 0.000000
0.076813 0.872559 0.000000
0.108124 0.872559 0.000000
0.148102 0.872559 0.000000
0.197479 0.872559 0.000000
0.254578 0.872559 0.000000
0.317261 0.872559 0.000000
0.383301 0.872559 0.000000
0.450592 0.872559 0.000000
0.516937 0.872559 0.000000
0.580170 0.872559 0.000000
0.638214 0.872559 0.000000
0.690308 0.872559 0.000000
0.736603 0.872559 0.000000
0.777618 0.872559 0.000000
0.813690 0.872559 0.000000
0.845215 0.872559 0.000000
0.872559 0.872559 0.000000
0.896118 0.872559 0.000000
0.916260 0.872559 0.000000
0.933380 0.872559 0.000000
0.947815 0.872559 0.000000
0.959991 0.872559 0.000000
0.970276 0.872559 0.000000
0.979034 0.872559 0.000000
0.986664 0.872559 0.000000
0.993530 0.872559 0.000000
1.000000 0.872559 0.000000
0.000000 0.896118 0.000000
0.009552 0.896118 0.000000
0.020599 0.896118 0.000000
0.034515 0.896118 0.000000
0.052795 0.896118 0.000000
0.076813 0.896118 0.000000
0.108124 0.896118 0.000000
0.148102 0.896118 0.000000
0.197479 0.896118 0.000000
0.254578 0.896118 0.000000
0.317261 0.896118 0.000000
0.383301 0.896118 0.000000
0.450592 0.896118 0.000000
0.516937 0.896118 0.000000
0.580170 0.896118 0.000000
0.638214 0.896118 0.000000
0.690308 0.896118 0.000000
0.736603 0.896118 0.000000
0.777618 0.896118 0.000000
0.813690 0.896118 0.000000
0.845215 0.896118 0.000000
0.872559 0.896118 0.000000
0.896118 0.896118 0.000000
0.916260 0.896118 0.000000
0.933380 0.896118 0.000000
0.947815 0.896118 0.000000
0.959991 0.896118 0.000000
0.970276 0.896118 0.000000
0.979034 0.896118 0.000000
0.986664 0.896118 0.000000
0.993530 0.896118 0.000000
1.000000 0.896118 0.000000
0.000000 0.916260 0.000000
0.009552 0.916260 0.000000
0.020599 0.916260 0.000000
0.034515 0.916260 0.000000
0.052795 0.916260 0.000000
0.076813 0.916260 0.000000
0.108124 0.916260 0.000000
0.148102 0.916260 0.000000
0.197479 0.916260 0.000000
0.254578 0.916260 0.000000
0.317261 0.916260 0.000000
0.383301 0.916260 0.000000
0.450592 0.916260 0.000000
0.516937 0.916260 0.000000
0.580170 0.916260 0.000000
0.638214 0.916260 0.000000
0.690308 0.916260 0.000000
0.736603 0.916260 0.000000
0.777618 0.916260 0.000000
0.813690 0.916260 0.000000
0.845215 0.916260 0.000000
0.872559 0.916260 0.000000
0.896118 0.916260 0.000000
0.916260 0.916260 0.000000
0.933380 0.916260 0.000000
0.947815 0.916260 0.000000
0.959991 0.916260 0.000000
0.970276 0.916260 0.000000
0.979034 0.916260 0.000000
0.986664 0.916260 0.000000
0.993530 0.916260 0.000000
1.000000 0.916260 0.000000
0.000000 0.933380 0.000000
0.009552 0.933380 0.000000
0.020599 0.933380 0.000000
0.034515 0.933380 0.000000
0.052795 0.933380 0.000000
0.076813 0.933380 0.000000
0.108124 0.933380 0.000000
0.148102 0.933380 0.000000
0.197479 0.933380 0.000000
0.254578 0.933380 0.000000
0.317261 0.933380 0.000000
0.383301 0.933380 0.000000
0.450592 0.933380 0.000000
0.516937 0.933380 0.000000
0.580170 0.933380 0.000000
0.638214 0.933380 0.000000
0.690308 0.933380 0.000000
0.736603 0.933380 0.000000
0.777618 0.933380 0.000000
0.813690 0.933380 0.000000
0.845215 0.933380 0.000000
0.872559 0.933380 0.000000
0.896118 0.933380 0.000000
0.916260 0.933380 0.000000
0.933380 0.933380 0.000000
0.947815 0.933380 0.000000
0.959991 0.933380 0.000000
0.970276 0.933380 0.000000
0.979034 0.933380 0.000000
0.986664 0.933380 0.000000
0.993530 0.933380 0.000000
1.000000 0.933380 0.000000
0.000000 0.947815 0.000000
0.009552 0.947815 0.000000
0.020599 0.947815 0.000000
0.034515 0.947815 0.000000
0.052795 0.947815 0.000000
0.076813 0.947815 0.000000
0.108124 0.947815 0.000000
0.148102 0.947815 0.000000
0.197479 0.947815 0.000000
0.254578 0.947815 0.000000
0.317261 0.947815 0.000000
0.383301 0.947815 0.000000
0.450592 0.947815 0.000000
0.516937 0.947815 0.000000
0.580170 0.947815 0.000000
0.638214 0.947815 0.000000
0.690308 0.947815 0.000000
0.736603 0.947815 0.000000
0.777618 0.947815 0.000000
0.813690 0.947815 0.000000
0.845215 0.947815 0.000000
0.872559 0.947815 0.000000
0.896118 0.947815 0.000000
0.916260 0.947815 0.000000
0.933380 0.947815 0.000000
0.947815 0.947815 0.000000
0.959991 0.947815 0.000000
0.970276 0.947815 0.000000
0.979034 0.947815 0.000000
0.986664 0.947815 0.000000
0.993530 0.947815 0.000000
1.000000 0.947815 0.000000
0.000000 0.959991 0.000000
0.009552 0.959991 0.000000
0.020599 0.959991 0.000000
0.034515 0.959991 0.000000
0.052795 0.959991 0.000000
0.076813 0.959991 0.000000
0.108124 0.959991 0.000000
0.148102 0.959991 0.000000
0.197479 0.959991 0.000000
0.254578 0.959991 0.000000
0.317261 0.959991 0.000000
0.383301 0.959991 0.000000
0.450592 0.959991 0.000000
0.516937 0.959991 0.000000
0.580170 0.959991 0.000000
0.638214 0.959991 0.000000
0.690308 0.959991 0.000000
0.736603 0.959991 0.000000
0.777618 0.959991 0.000000
0.813690 0.959991 0.000000
0.845215 0.959991 0.000000
0.872559 0.959991 0.000000
0.896118 0.959991 0.000000
0.916260 0.959991 0.000000
0.933380 0.959991 0.000000
0.947815 0.959991 0.000000
0.959991 0.959991 0.000000
0.970276 0.959991 0.000000
0.979034 0.959991 0.000000
0.986664 0.959991 0.000000
0.993530 0.959991 0.000000
1.000000 0.959991 0.000000
0.000000 0.970276 0.000000
0.009552 0.970276 0.000000
0.020599 0.970276 0.000000
0.034515 0.970276 0.000000
0.052795 0.970276 0.000000
0.076813 0.970276 0.000000
0.108124 0.970276 0.000000
0.148102 0.970276 0.000000
0.197479 0.970276 0.000000
0.254578 0.970276 0.000000
0.317261 0.970276 0.000000
0.383301 0.970276 0.000000
0.450592 0.970276 0.000000
0.516937 0.970276 0.000000
0.580170 0.970276 0.000000
0.638214 0.970276 0.000000
